src/icons/svg/linkedin.svg

<svg width="20" height="20" viewBox="0 0 20 20" fill="none" xmlns="http://www.w3.org/2000/svg">
<path d="M16.997 1.66556H3.09111C2.91188 1.65716 2.73274 1.68419 2.56396 1.74511C2.39518 1.80603 2.24008 1.89964 2.10752 2.02057C1.97497 2.1415 1.86757 2.2874 1.79148 2.44988C1.71538 2.61238 1.67208 2.78828 1.66406 2.96752V16.9038C1.67456 17.2788 1.82829 17.6358 2.09367 17.9011C2.35905 18.1665 2.71595 18.3202 3.09111 18.3307H16.997C17.3617 18.3145 17.7056 18.156 17.9548 17.8892C18.2041 17.6225 18.3389 17.2687 18.3303 16.9038V2.96752C18.3334 2.79306 18.3007 2.61983 18.2343 2.45845C18.168 2.29708 18.0693 2.15096 17.9444 2.02904C17.8196 1.90714 17.6712 1.81202 17.5083 1.74952C17.3454 1.68701 17.1714 1.65844 16.997 1.66556ZM6.87228 15.5601H4.44525V8.13375H6.87228V15.5601ZM5.71605 7.00882C5.54669 7.01472 5.37793 6.98554 5.2204 6.92311C5.06285 6.86068 4.91991 6.76634 4.80058 6.64603C4.68124 6.52572 4.58807 6.38203 4.52692 6.22399C4.46577 6.06596 4.43797 5.89698 4.44525 5.72768C4.43776 5.55656 4.46612 5.38576 4.52853 5.22624C4.59093 5.06671 4.68599 4.922 4.8076 4.80137C4.92923 4.68074 5.07471 4.58686 5.23474 4.52576C5.39478 4.46465 5.56582 4.43768 5.73689 4.44655C5.90625 4.44066 6.075 4.46983 6.23254 4.53226C6.39009 4.5947 6.53302 4.68903 6.65235 4.80934C6.77169 4.92965 6.86487 5.07334 6.92601 5.23138C6.98717 5.38941 7.01497 5.55839 7.00769 5.72768C7.01518 5.89882 6.98681 6.06961 6.92441 6.22913C6.86201 6.38866 6.76695 6.53337 6.64533 6.654C6.52371 6.77463 6.37822 6.86851 6.2182 6.92961C6.05816 6.99072 5.88712 7.01769 5.71605 7.00882ZM15.5596 15.5601H13.1221V11.498C13.1221 10.5294 12.7784 9.86275 11.9138 9.86275C11.6453 9.86505 11.3839 9.95035 11.1658 10.107C10.9476 10.2637 10.7832 10.4839 10.6951 10.7377C10.6274 10.9279 10.5991 11.1298 10.6118 11.3314V15.5601H8.21599V8.13375H10.6118V9.17532C10.8248 8.784 11.1418 8.45924 11.5278 8.23676C11.9138 8.01438 12.3538 7.90302 12.7992 7.91499C14.3721 7.91499 15.5596 8.95659 15.5596 11.1751V15.5601Z" fill="#19191C"/>
</svg>

<svg xmlns="http://www.w3.org/2000/svg" width="20" height="20" fill="none"><path fill="#19191C" d="M16.997 1.666H3.091a1.365 1.365 0 0 0-1.427 1.302v13.936a1.47 1.47 0 0 0 1.427 1.427h13.906a1.395 1.395 0 0 0 1.333-1.427V2.968a1.28 1.28 0 0 0-1.333-1.302M6.872 15.56H4.445V8.134h2.427zM5.716 7.01a1.23 1.23 0 0 1-1.27-1.281 1.23 1.23 0 0 1 1.29-1.281 1.23 1.23 0 0 1 1.272 1.28A1.23 1.23 0 0 1 5.716 7.01m9.844 8.551h-2.438v-4.062c0-.969-.344-1.635-1.208-1.635a1.3 1.3 0 0 0-1.219.875 1.5 1.5 0 0 0-.083.593v4.23H8.216V8.133h2.396v1.041a2.42 2.42 0 0 1 2.187-1.26c1.573 0 2.76 1.042 2.76 3.26z"/></svg>
